X:122
T:Y Crwtyn Llwyd - The Grey Lad
M:2/4
L:1/8
Q:220
C:Trad. arr. Ceri Rhys Matthews
R:Processional
N:Second measure is a harmony
K:G
G>F ED | EF G2 | F/G/A GF | G2 E2 | G>F ED|
EF G2 | F/G/A GF | E4 :|| F>G AB |
AG F2 | F>G AB | AG F2 | B>A GF | GA B2|
| F/G/A GF | E4 ||
